X:13
T:AVANT DEUX de SAINT-CAST
Z: Yves BELOTTEAU
M:4/4
L:1/4
Q:1/4=120
K:C
|e3/2 z/2 e3/2d/2 edc3/2 z/2 |cccd eecG|e3/2 z/2 e3/2d/2 edc3/2 z/2 |ccc
d dec3/2 z/2 |
Gccd eedG|cccd dec3/2 z/2 |Gccd eedG|cccd dec3/2 z/2 |
e3/2 z/2 dc BAG3/2 z/2 |ccBc dedG|e3/2 z/2 dc BAG3/2 z/2 |ccBc dec3/2 z/
2 |
ccBc dedG|ccBc dec3/2 z/2 |ccBc dedG|ccBc dec3/2|
